core/assets/icons/stars.smiling.svg

<svg width="24" height="24" viewBox="0 0 24 24" xmlns="http://www.w3.org/2000/svg"><g id="star=smiling"><path id="Vector" d="M11.9999 0.5L16.2259 6.683L23.4129 8.792L18.8379 14.722L19.0529 22.208L11.9999 19.69L4.94691 22.208L5.16191 14.722L0.586914 8.792L7.77391 6.683L11.9999 0.5ZM11.9999 4.044L9.02191 8.402L3.95691 9.887L7.18191 14.065L7.02891 19.34L11.9999 17.566L16.9699 19.34L16.8179 14.065L20.0419 9.887L14.9779 8.402L11.9999 4.044ZM9.99991 12C9.99991 12.5304 10.2106 13.0391 10.5857 13.4142C10.9608 13.7893 11.4695 14 11.9999 14C12.5303 14 13.0391 13.7893 13.4141 13.4142C13.7892 13.0391 13.9999 12.5304 13.9999 12H15.9999C15.9999 13.0609 15.5785 14.0783 14.8283 14.8284C14.0782 15.5786 13.0608 16 11.9999 16C10.939 16 9.92163 15.5786 9.17149 14.8284C8.42134 14.0783 7.99991 13.0609 7.99991 12H9.99991Z"/></g></svg>

<svg xmlns="http://www.w3.org/2000/svg" width="24" height="24" fill="none"><path fill="#191C22" d="m12 .5 4.226 6.183 7.187 2.109-4.575 5.93.215 7.486L12 19.69l-7.053 2.518.215-7.486-4.575-5.93 7.187-2.109L12 .5Zm0 3.544L9.022 8.402 3.957 9.887l3.225 4.178-.153 5.275 4.97-1.774 4.97 1.774-.151-5.275 3.224-4.178-5.064-1.485L12 4.044ZM10 12a2 2 0 0 0 4 0h2a4 4 0 1 1-8 0h2Z"/></svg>
